source/docs/software/vision-processing/introduction/diagrams/sink.drawio.svg

<svg xmlns="http://www.w3.org/2000/svg" xmlns:xlink="http://www.w3.org/1999/xlink" width="281" height="241" viewBox="-0.5 -0.5 281 241" style="background-color:#fff"><defs><style>@import url(https://fonts.googleapis.com/css?family=Lato);</style></defs><path d="M140 30v10H60v13.63" fill="none" stroke="#000" stroke-miterlimit="10" stroke-dasharray="3 3" pointer-events="stroke"/><path d="M60 58.88l-3.5-7 3.5 1.75 3.5-1.75z" stroke="#000" stroke-miterlimit="10" pointer-events="all"/><path d="M140 30v10h80v13.63" fill="none" stroke="#000" stroke-miterlimit="10" stroke-dasharray="3 3" pointer-events="stroke"/><path d="M220 58.88l-3.5-7 3.5 1.75 3.5-1.75z" stroke="#000" stroke-miterlimit="10" pointer-events="all"/><path fill="#fff" stroke="#000" pointer-events="all" d="M80 0h120v30H80z"/><switch transform="translate(-.5 -.5)"><foreignObject style="text-align:left" pointer-events="none" width="100%" height="100%" requiredFeatures="http://www.w3.org/TR/SVG11/feature#Extensibility" overflow="visible"><div xmlns="http://www.w3.org/1999/xhtml" style="align-items:unsafe center;justify-content:unsafe center;width:118px;height:1px;padding-top:15px;margin-left:81px" display="flex"><div style="box-sizing:border-box;text-align:center" font-size="0"><div style="line-height:1.2;white-space:normal;word-wrap:normal" display="inline-block" font-size="12" font-family="Lato" color="#000" pointer-events="all">UsbCamera</div></div></div></foreignObject><text x="140" y="19" font-family="Lato" font-size="12" text-anchor="middle">UsbCamera</text></switch><path d="M60 90v20-20 13.63" fill="none" stroke="#000" stroke-miterlimit="10" pointer-events="stroke"/><path d="M60 108.88l-3.5-7 3.5 1.75 3.5-1.75z" stroke="#000" stroke-miterlimit="10" pointer-events="all"/><path fill="#fff" stroke="#000" pointer-events="all" d="M0 60h120v30H0z"/><switch transform="translate(-.5 -.5)"><foreignObject style="text-align:left" pointer-events="none" width="100%" height="100%" requiredFeatures="http://www.w3.org/TR/SVG11/feature#Extensibility" overflow="visible"><div xmlns="http://www.w3.org/1999/xhtml" style="align-items:unsafe center;justify-content:unsafe center;width:118px;height:1px;padding-top:75px;margin-left:1px" display="flex"><div style="box-sizing:border-box;text-align:center" font-size="0"><div style="line-height:1.2;white-space:normal;word-wrap:normal" display="inline-block" font-size="12" font-family="Lato" color="#000" pointer-events="all">CvSink</div></div></div></foreignObject><text x="60" y="79" font-family="Lato" font-size="12" text-anchor="middle">CvSink</text></switch><path fill="#fff" stroke="#000" pointer-events="all" d="M160 60h120v30H160z"/><switch transform="translate(-.5 -.5)"><foreignObject style="text-align:left" pointer-events="none" width="100%" height="100%" requiredFeatures="http://www.w3.org/TR/SVG11/feature#Extensibility" overflow="visible"><div xmlns="http://www.w3.org/1999/xhtml" style="align-items:unsafe center;justify-content:unsafe center;width:118px;height:1px;padding-top:75px;margin-left:161px" display="flex"><div style="box-sizing:border-box;text-align:center" font-size="0"><div style="line-height:1.2;white-space:normal;word-wrap:normal" display="inline-block" font-size="12" font-family="Lato" color="#000" pointer-events="all">MjpegServer [1]</div></div></div></foreignObject><text x="220" y="79" font-family="Lato" font-size="12" text-anchor="middle">MjpegServer [1]</text></switch><path d="M60 140v20-20 13.63" fill="none" stroke="#000" stroke-miterlimit="10" pointer-events="stroke"/><path d="M60 158.88l-3.5-7 3.5 1.75 3.5-1.75z" stroke="#000" stroke-miterlimit="10" pointer-events="all"/><ellipse cx="60" cy="125" rx="60" ry="15" fill="#fff" stroke="#000" pointer-events="all"/><switch transform="translate(-.5 -.5)"><foreignObject style="text-align:left" pointer-events="none" width="100%" height="100%" requiredFeatures="http://www.w3.org/TR/SVG11/feature#Extensibility" overflow="visible"><div xmlns="http://www.w3.org/1999/xhtml" style="align-items:unsafe center;justify-content:unsafe center;width:118px;height:1px;padding-top:125px;margin-left:1px" display="flex"><div style="box-sizing:border-box;text-align:center" font-size="0"><div style="line-height:1.2;white-space:normal;word-wrap:normal" display="inline-block" font-size="12" font-family="Lato" color="#000" pointer-events="all">User code</div></div></div></foreignObject><text x="60" y="129" font-family="Lato" font-size="12" text-anchor="middle">User code</text></switch><path d="M60 190v20-20 13.63" fill="none" stroke="#000" stroke-miterlimit="10" pointer-events="stroke"/><path d="M60 208.88l-3.5-7 3.5 1.75 3.5-1.75z" stroke="#000" stroke-miterlimit="10" pointer-events="all"/><path fill="#fff" stroke="#000" pointer-events="all" d="M0 160h120v30H0z"/><switch transform="translate(-.5 -.5)"><foreignObject style="text-align:left" pointer-events="none" width="100%" height="100%" requiredFeatures="http://www.w3.org/TR/SVG11/feature#Extensibility" overflow="visible"><div xmlns="http://www.w3.org/1999/xhtml" style="align-items:unsafe center;justify-content:unsafe center;width:118px;height:1px;padding-top:175px;margin-left:1px" display="flex"><div style="box-sizing:border-box;text-align:center" font-size="0"><div style="line-height:1.2;white-space:normal;word-wrap:normal" display="inline-block" font-size="12" font-family="Lato" color="#000" pointer-events="all">CvSource</div></div></div></foreignObject><text x="60" y="179" font-family="Lato" font-size="12" text-anchor="middle">CvSource</text></switch><path fill="#fff" stroke="#000" pointer-events="all" d="M0 210h120v30H0z"/><switch transform="translate(-.5 -.5)"><foreignObject style="text-align:left" pointer-events="none" width="100%" height="100%" requiredFeatures="http://www.w3.org/TR/SVG11/feature#Extensibility" overflow="visible"><div xmlns="http://www.w3.org/1999/xhtml" style="align-items:unsafe center;justify-content:unsafe center;width:118px;height:1px;padding-top:225px;margin-left:1px" display="flex"><div style="box-sizing:border-box;text-align:center" font-size="0"><div style="line-height:1.2;white-space:normal;word-wrap:normal" display="inline-block" font-size="12" font-family="Lato" color="#000" pointer-events="all">MjpegServer [2]</div></div></div></foreignObject><text x="60" y="229" font-family="Lato" font-size="12" text-anchor="middle">MjpegServer [2]</text></switch><switch><a transform="translate(0 -5)" xlink:href="https://desk.draw.io/support/solutions/articles/16000042487" target="_blank"><text text-anchor="middle" font-size="10" x="50%" y="100%">Viewer does not support full SVG 1.1</text></a></switch></svg>

<?xml version="1.0" encoding="UTF-8"?>
<!DOCTYPE svg PUBLIC "-//W3C//DTD SVG 1.1//EN" "http://www.w3.org/Graphics/SVG/1.1/DTD/svg11.dtd">
<svg xmlns="http://www.w3.org/2000/svg" xmlns:xlink="http://www.w3.org/1999/xlink" version="1.1" width="281px" height="241px" viewBox="-0.5 -0.5 281 241" content="&lt;mxfile host=&quot;Electron&quot; modified=&quot;2020-04-26T21:14:51.332Z&quot; agent=&quot;5.0 (Macintosh; Intel Mac OS X 10_14_6) AppleWebKit/537.36 (KHTML, like Gecko) draw.io/13.0.1 Chrome/80.0.3987.163 Electron/8.2.1 Safari/537.36&quot; etag=&quot;pfCrl9-XrrzpA-qoYbg2&quot; version=&quot;13.0.1&quot; type=&quot;device&quot;&gt;&lt;diagram id=&quot;LqHP6yZpE5XkmBS_Iw5V&quot; name=&quot;Page-1&quot;&gt;5Vhdb5swFP01PC4CXPLx2HzQPbTTJLS1fao8uAFnBjNjEtivnwkmxKGNEi1rqCZFEff42uaee+41YKBZXNxxnEYPLABq2GZQGGhu2PbIduR/BZQ1MBybNRByEtSQ1QIe+Q0KbNxyEkCmOQrGqCCpDvosScAXGoY5ZxvdbcmovmuKQ+gAno9pF30kgYhqdOyYLf4ZSBg1O1umGolx46yALMIB22gQFMJliVC3eI8FM5xFJEQV261hu/K3rMYHIWMhBZySbOCzWMJ+Jl3cJY4JrYjdTpVLooWBZpwxUV/FxQxolY6G6npf943RXawcEnHKhO/8Ca3CIM1fvnju8+Mv4cHik0p4JsqGQwgkpcpkXEQsZAmmixadcpYnAVSrmtJqfe4ZSyVoSXAFQpRKHziX4aJpJGKqRgOcRdv5lVFx5mrUoGk3NBVtxnLuw5F4GtVhHoI44mernAaaoBRxd8BiELyUDhwoFmSt6wsrDYQ7PzX1lnNc7jmkjFSCaVf+WgHSQRXcTluq3sYHGTxwt26OucuLev/G2gukhbaiOEMgw/9UIOgjCgSZ7y8QFfIa01yR8C37McMxcNyRji6MTUQEeCne5msjDyRdBGflfQ1cQHE0U83oUOeoqalNe2BYDevR3mGBzLdzu8fw+QSOr1Fhkj9ePlXzB05jPqvltsa80KxSWZctRvvEYhxduhj/KmF2R/GztUeSn72U+1hX++6J52pyRx32HlYphB5wGZQcMJypZTjzXpJp3/SNzebJ+327x2W7wOjELjDpVRcYvXLubQXsy7eqblIolS9B0Js24FxduPbHF+7kROFaVq+UO3nt/Kpj7WPTPZCuff2e233k7Rxhdl+PsEM2/2EjkGb7daN+3Wi/OqHFHw==&lt;/diagram&gt;&lt;/mxfile&gt;" style="background-color: rgb(255, 255, 255);"><defs><style type="text/css">@import url(https://fonts.googleapis.com/css?family=Lato);&#xa;</style></defs><g><path d="M 140 30 L 140 40 L 60 40 L 60 53.63" fill="none" stroke="#000000" stroke-miterlimit="10" stroke-dasharray="3 3" pointer-events="stroke"/><path d="M 60 58.88 L 56.5 51.88 L 60 53.63 L 63.5 51.88 Z" fill="#000000" stroke="#000000" stroke-miterlimit="10" pointer-events="all"/><path d="M 140 30 L 140 40 L 220 40 L 220 53.63" fill="none" stroke="#000000" stroke-miterlimit="10" stroke-dasharray="3 3" pointer-events="stroke"/><path d="M 220 58.88 L 216.5 51.88 L 220 53.63 L 223.5 51.88 Z" fill="#000000" stroke="#000000" stroke-miterlimit="10" pointer-events="all"/><rect x="80" y="0" width="120" height="30" fill="#ffffff" stroke="#000000" pointer-events="all"/><g transform="translate(-0.5 -0.5)"><switch><foreignObject style="overflow: visible; text-align: left;" pointer-events="none" width="100%" height="100%" requiredFeatures="http://www.w3.org/TR/SVG11/feature#Extensibility"><div xmlns="http://www.w3.org/1999/xhtml" style="display: flex; align-items: unsafe center; justify-content: unsafe center; width: 118px; height: 1px; padding-top: 15px; margin-left: 81px;"><div style="box-sizing: border-box; font-size: 0; text-align: center; "><div style="display: inline-block; font-size: 12px; font-family: Lato; color: #000000; line-height: 1.2; pointer-events: all; white-space: normal; word-wrap: normal; ">UsbCamera</div></div></div></foreignObject><text x="140" y="19" fill="#000000" font-family="Lato" font-size="12px" text-anchor="middle">UsbCamera</text></switch></g><path d="M 60 90 L 60 110 L 60 90 L 60 103.63" fill="none" stroke="#000000" stroke-miterlimit="10" pointer-events="stroke"/><path d="M 60 108.88 L 56.5 101.88 L 60 103.63 L 63.5 101.88 Z" fill="#000000" stroke="#000000" stroke-miterlimit="10" pointer-events="all"/><rect x="0" y="60" width="120" height="30" fill="#ffffff" stroke="#000000" pointer-events="all"/><g transform="translate(-0.5 -0.5)"><switch><foreignObject style="overflow: visible; text-align: left;" pointer-events="none" width="100%" height="100%" requiredFeatures="http://www.w3.org/TR/SVG11/feature#Extensibility"><div xmlns="http://www.w3.org/1999/xhtml" style="display: flex; align-items: unsafe center; justify-content: unsafe center; width: 118px; height: 1px; padding-top: 75px; margin-left: 1px;"><div style="box-sizing: border-box; font-size: 0; text-align: center; "><div style="display: inline-block; font-size: 12px; font-family: Lato; color: #000000; line-height: 1.2; pointer-events: all; white-space: normal; word-wrap: normal; ">CvSink</div></div></div></foreignObject><text x="60" y="79" fill="#000000" font-family="Lato" font-size="12px" text-anchor="middle">CvSink</text></switch></g><rect x="160" y="60" width="120" height="30" fill="#ffffff" stroke="#000000" pointer-events="all"/><g transform="translate(-0.5 -0.5)"><switch><foreignObject style="overflow: visible; text-align: left;" pointer-events="none" width="100%" height="100%" requiredFeatures="http://www.w3.org/TR/SVG11/feature#Extensibility"><div xmlns="http://www.w3.org/1999/xhtml" style="display: flex; align-items: unsafe center; justify-content: unsafe center; width: 118px; height: 1px; padding-top: 75px; margin-left: 161px;"><div style="box-sizing: border-box; font-size: 0; text-align: center; "><div style="display: inline-block; font-size: 12px; font-family: Lato; color: #000000; line-height: 1.2; pointer-events: all; white-space: normal; word-wrap: normal; ">MjpegServer [1]</div></div></div></foreignObject><text x="220" y="79" fill="#000000" font-family="Lato" font-size="12px" text-anchor="middle">MjpegServer [1]</text></switch></g><path d="M 60 140 L 60 160 L 60 140 L 60 153.63" fill="none" stroke="#000000" stroke-miterlimit="10" pointer-events="stroke"/><path d="M 60 158.88 L 56.5 151.88 L 60 153.63 L 63.5 151.88 Z" fill="#000000" stroke="#000000" stroke-miterlimit="10" pointer-events="all"/><ellipse cx="60" cy="125" rx="60" ry="15" fill="#ffffff" stroke="#000000" pointer-events="all"/><g transform="translate(-0.5 -0.5)"><switch><foreignObject style="overflow: visible; text-align: left;" pointer-events="none" width="100%" height="100%" requiredFeatures="http://www.w3.org/TR/SVG11/feature#Extensibility"><div xmlns="http://www.w3.org/1999/xhtml" style="display: flex; align-items: unsafe center; justify-content: unsafe center; width: 118px; height: 1px; padding-top: 125px; margin-left: 1px;"><div style="box-sizing: border-box; font-size: 0; text-align: center; "><div style="display: inline-block; font-size: 12px; font-family: Lato; color: #000000; line-height: 1.2; pointer-events: all; white-space: normal; word-wrap: normal; ">User code</div></div></div></foreignObject><text x="60" y="129" fill="#000000" font-family="Lato" font-size="12px" text-anchor="middle">User code</text></switch></g><path d="M 60 190 L 60 210 L 60 190 L 60 203.63" fill="none" stroke="#000000" stroke-miterlimit="10" pointer-events="stroke"/><path d="M 60 208.88 L 56.5 201.88 L 60 203.63 L 63.5 201.88 Z" fill="#000000" stroke="#000000" stroke-miterlimit="10" pointer-events="all"/><rect x="0" y="160" width="120" height="30" fill="#ffffff" stroke="#000000" pointer-events="all"/><g transform="translate(-0.5 -0.5)"><switch><foreignObject style="overflow: visible; text-align: left;" pointer-events="none" width="100%" height="100%" requiredFeatures="http://www.w3.org/TR/SVG11/feature#Extensibility"><div xmlns="http://www.w3.org/1999/xhtml" style="display: flex; align-items: unsafe center; justify-content: unsafe center; width: 118px; height: 1px; padding-top: 175px; margin-left: 1px;"><div style="box-sizing: border-box; font-size: 0; text-align: center; "><div style="display: inline-block; font-size: 12px; font-family: Lato; color: #000000; line-height: 1.2; pointer-events: all; white-space: normal; word-wrap: normal; ">CvSource</div></div></div></foreignObject><text x="60" y="179" fill="#000000" font-family="Lato" font-size="12px" text-anchor="middle">CvSource</text></switch></g><rect x="0" y="210" width="120" height="30" fill="#ffffff" stroke="#000000" pointer-events="all"/><g transform="translate(-0.5 -0.5)"><switch><foreignObject style="overflow: visible; text-align: left;" pointer-events="none" width="100%" height="100%" requiredFeatures="http://www.w3.org/TR/SVG11/feature#Extensibility"><div xmlns="http://www.w3.org/1999/xhtml" style="display: flex; align-items: unsafe center; justify-content: unsafe center; width: 118px; height: 1px; padding-top: 225px; margin-left: 1px;"><div style="box-sizing: border-box; font-size: 0; text-align: center; "><div style="display: inline-block; font-size: 12px; font-family: Lato; color: #000000; line-height: 1.2; pointer-events: all; white-space: normal; word-wrap: normal; ">MjpegServer [2]</div></div></div></foreignObject><text x="60" y="229" fill="#000000" font-family="Lato" font-size="12px" text-anchor="middle">MjpegServer [2]</text></switch></g></g><switch><g requiredFeatures="http://www.w3.org/TR/SVG11/feature#Extensibility"/><a transform="translate(0,-5)" xlink:href="https://desk.draw.io/support/solutions/articles/16000042487" target="_blank"><text text-anchor="middle" font-size="10px" x="50%" y="100%">Viewer does not support full SVG 1.1</text></a></switch></svg>
